X:28
T: Átalmennék a temetőn
O: Gajcsána (Tekucs), 1929
Q: "Parlando" 1/4=92
L:1/4
K:Bb
C =E G G2 | G F E C2 z |
B B A G | A B A G2 z |
c2 B A HG | G G2 E C z |
D E F G | F E D2 D z |

